X:4018
T:Drops of Brandy
R:Slipjig
C:Trad.
O:Ireland
M:9/8
L:1/8
Q:1/8=220
K:D
"D"A2G FDF FDF|A2G FDF "A7"GFE|"D"A2G FDF FDF|"Em"GFG E2F "A7"GFE:|
|:"D"DFA dAF dAF|DFA dAF "A7"GFE|"D"DFA dAF dAF|"Em"GFG E2F "A7"GFE:|

